X:640
T: Tatter Jack Walsh
Z: Piano Box Version by Martin Fleischmann
H: Created 2015-03-27 /  Last Modified 2015-04-04
R: jig
M: 6/8
L: 1/8
K: Dmix
|: fef ded | cAB c2 A | dcA GFG| Add efg |
fef ded | cAB c2 A | dcA GFG | Ad^c d3 :|
|: dfa dfa|dfa agf|~g3 ged|cde ~g3 |
afd fed | cAB cde | dcA GFG| Ad^c d3 :|

